X:426
%%etbk:tnset id:128,pos:1,rep:3x,ant:
%%etbk:wsite http://www.thesession.org/tunes/display/3453
%%etbk:pldat 2014-07-04T16:28,2014-05-06T16:42,2014-03-27T17:55,2014-02-25T19:21,2013-11-27T18:24,2013-10-24T19:08,2013-10-23T19:03,2013-08-28T17:06,2013-05-22T17:48
T: Galway Bay
Z: Piano Box Version by Martin Fleischmann
H: Created 2013-02-19 /  Last Modified 2014-05-06
M: 4/4
L: 1/8
R: hornpipe
K:Edor
!1!E!2!F |: "G"!1!G!2!F!1!GA !3!B!1!A !2!(3Bcd | "em"!5!e2!1!B!3!e eB!5!g!3!e | "G"!2!dBge !2!d!1!B!2!A!3!B | "em"!1!G!3!FE!1!D {G}!2!E!1!D!2!B,!4!D |
!5!E!1!B,!2!EF !4!GA (3GFE | "D"!1!D3F {G}FE!1!D!3!F | "em"!1!EFGA "bm"!5!BAGF |1 "em"!3!G2 !1!E2 E2EF:|2 "em"!3!G2 !1!E2 E3!3!e:|
|: "em"{f}!3!edBd !3!eB!5!gf | !3!ed!1!B!2!A !3!B!1!G!2!E!3!F | "G"!1!G3A !3!B!1!ABc | "D"!4!d!1!A!4!AG !2!FFDF |
"em"!3!G!1!D!5!B!3!G "D"!2!F!1!D!4!A!2!F | "em"!3!G!1!E!5!B!3!G "bm"!1!F!2!B!4!d!1!B | "em"!1!Bdef "bm"!5!gfed |1 "em"!1!B!3!e{f}ed e3e:|2 "em"!1!B!3!e{f}ed e2!1!E!2!F:|


